X: 172	% 47
T: Bony Smith's Quadrille
S: Viola Ruth "Pioneer Western Folk Tunes" 1948 p.17 #2
R: jig
Z: 2019 John Chambers <jc:trillian.mit.edu>
M: 6/8
L: 1/8
K: C
V: 1 name="47"
"^Lively"g |\
geg age | ccc G2c | Bcd A2B | cBA G2g |\
geg age | ccc G2c | (Bcd) A2B | [c3E3] [c3E3] :|
|:\
G[cE][cE] [cE][cE][cE] | G[cE][cE] cBA | G[BG][BG] [BG][BG][BG] | G[BG][BG] BAG |\
G[cE][cE] [cE][cE][cE] | G[cE][cE] [cE]BA | [e3c3E3] A2B | [c3E3] [c3E3] :|
